svg/cake-twotone.svg

<svg xmlns="http://www.w3.org/2000/svg" width="24" height="24" viewBox="0 0 24 24">
	<g fill="none" stroke="currentColor" stroke-linecap="round" stroke-linejoin="round" stroke-width="2">
		<path d="M12 21h8v-9c0 -1.1 -0.9 -2 -2 -2h-6M12 21h-8v-9c0 -1.1 0.9 -2 2 -2h6" stroke-dasharray="30">
			<animate attributeName="stroke-dashoffset" dur="0.4s" fill="freeze" values="30;0" />
		</path>
		<path d="M12 10v-2" stroke-dasharray="4" stroke-dashoffset="4">
			<animate attributeName="stroke-dashoffset" begin="0.5s" dur="0.2s" fill="freeze" to="0" />
		</path>
		<path d="M4 16h1c2 0 3.5 -2 3.5 -2c0 0 1.5 2 3.5 2c2 0 3.5 -2 3.5 -2c0 0 1.5 2 3.5 2h1" stroke-dasharray="22" stroke-dashoffset="22">
			<animate attributeName="stroke-dashoffset" begin="0.7s" dur="0.3s" fill="freeze" to="0" />
		</path>
	</g>
	<g fill="currentColor">
		<path d="M14 4c0 1.1 -0.9 2 -2 2c-1.1 0 -2 -0.9 -2 -2c0 -1.1 2 -4 2 -4c0 0 2 2.9 2 4Z" opacity="0">
			<set attributeName="opacity" to="1" begin="1s" fill="freeze" />
			<animate attributeName="d" begin="1s" dur="0.2s" fill="freeze" values="M13 5c0 0.5 -0.5 1 -1 1c-0.5 0 -1 -0.5 -1 -1c0 -0.5 1 -1 1 -1c0 0 1 0.5 1 1Z;M14 4c0 1.1 -0.9 2 -2 2c-1.1 0 -2 -0.9 -2 -2c0 -1.1 2 -4 2 -4c0 0 2 2.9 2 4Z" />
		</path>
		<path d="M15.5 14c0 0 -1.5 2 -3.5 2c-2 0 -3.5 -2 -3.5 -2c0 0 -1.5 2 -3.5 2h-1v5h16v-5h-1c-2 0 -3.5 -2 -3.5 -2Z" fill-opacity="0">
			<animate attributeName="fill-opacity" begin="1.2s" dur="0.15s" fill="freeze" to="0.3" />
		</path>
	</g>
</svg>

<svg xmlns="http://www.w3.org/2000/svg" width="24" height="24" viewBox="0 0 24 24">
	<g fill="none" stroke="currentColor" stroke-width="2" stroke-linecap="round" stroke-linejoin="round">
		<path d="M12 21h8v-9c0 -1.1 -0.9 -2 -2 -2h-6M12 21h-8v-9c0 -1.1 0.9 -2 2 -2h6" stroke-dasharray="28" stroke-dashoffset="28">
			<animate attributeName="stroke-dashoffset" values="28;0" dur="0.4s" fill="freeze" />
		</path>
		<path d="M12 10v-2" stroke-dasharray="4" stroke-dashoffset="4">
			<animate attributeName="stroke-dashoffset" values="4;0" begin="0.4s" dur="0.2s" fill="freeze" />
		</path>
		<path d="M4 16h1c2 0 3.5 -2 3.5 -2c0 0 1.5 2 3.5 2c2 0 3.5 -2 3.5 -2c0 0 1.5 2 3.5 2h1" stroke-dasharray="20" stroke-dashoffset="20">
			<animate attributeName="stroke-dashoffset" values="20;0" begin="0.5s" dur="0.2s" fill="freeze" />
		</path>
	</g>
	<g fill="currentColor">
		<path d="M13 5C13 5.5 12.5 6 12 6C11.5 6 11 5.5 11 5C11 4.5 12 4 12 4C12 4 13 4.5 13 5Z" opacity="0">
			<animate attributeName="d" values="M13 5C13 5.5 12.5 6 12 6C11.5 6 11 5.5 11 5C11 4.5 12 4 12 4C12 4 13 4.5 13 5Z;M14 4C14 5.10457 13.1046 6 12 6C10.8954 6 10 5.10457 10 4C10 2.89543 12 0 12 0C12 0 14 2.89543 14 4Z" begin="0.6s" dur="0.2s" fill="freeze" />
			<set attributeName="opacity" to="1" begin="0.6s" fill="freeze" />
		</path>
		<path d="M15.5 14C15.5 14 14 16 12 16C10 16 8.5 14 8.5 14C8.5 14 7 16 5 16H4V21H20V16H19C17 16 15.5 14 15.5 14Z" fill="currentColor" fill-opacity="0">
			<animate attributeName="fill-opacity" values="0;0.3" begin="0.9s" dur="0.15s" fill="freeze" />
		</path>
	</g>
</svg>
